packages/icons/src/svg/raw-data.svg

<svg xmlns="http://www.w3.org/2000/svg" viewBox="0 0 16 16">
    <path d="M4.778 2.24189727C4.578 2.24189727 4.42 2.28189727 4.304 2.35889727 4.187 2.43589727 4.096 2.53289727 4.029 2.64989727 3.963 2.76689727 3.921 2.89689727 3.904 3.04089727 3.887 3.18589727 3.879 3.32389727 3.879 3.45689727L3.879 5.98889727C3.879 6.39889727 3.815 6.72889727 3.688 6.97889727 3.56 7.22889727 3.41 7.42289727 3.238 7.56189727 3.066 7.69989727 2.885 7.79789727 2.697 7.85289727 2.508 7.90889727 2.353 7.94189727 2.231 7.95289727L2.231 8.00289727C2.353 8.01389727 2.508 8.04989727 2.697 8.11089727 2.885 8.17189727 3.066 8.27189727 3.238 8.41089727 3.41 8.54989727 3.56 8.73289727 3.688 8.95989727 3.815 9.18689727 3.879 9.47989727 3.879 9.83389727L3.879 12.4978973C3.879 12.6198973 3.887 12.7538973 3.904 12.8978973 3.921 13.0418973 3.963 13.1718973 4.029 13.2888973 4.096 13.4058973 4.187 13.5028973 4.304 13.5798973 4.42 13.6588973 4.578 13.6968973 4.778 13.6968973L5.677 13.6968973 5.677 15.5608973 3.563 15.5608973C3.374 15.5608973 3.16 15.5138973 2.922 15.4208973 2.683 15.3248973 2.461 15.1868973 2.256 15.0038973 2.05 14.8208973 1.876 14.5878973 1.732 14.3048973 1.587 14.0208973 1.515 13.6918973 1.515 13.3138973L1.515 10.0838973C1.515 9.82889727 1.459 9.61189727 1.348 9.43489727 1.237 9.25789727 1.104 9.11589727.949 9.00989727.794 8.90489727.627 8.82589727.449 8.77789727.272 8.72689727.122 8.70189727 0 8.70189727L0 7.25289727C.122 7.25289727.272 7.22889727.449 7.17889727.627 7.12889727.794 7.04589727.949 6.92889727 1.104 6.81289727 1.237 6.65789727 1.348 6.46189727 1.459 6.26789727 1.515 6.03289727 1.515 5.75489727L1.515 2.62489727C1.515 2.24789727 1.587 1.91689727 1.732 1.63489727 1.876 1.35089727 2.05 1.11789727 2.256.934897266 2.461.751897266 2.683.612897266 2.922.518897266 3.16.423897266 3.374.376897266 3.563.376897266L5.677.376897266 5.677 2.24189727 4.778 2.24189727zM11.2048 13.6968973C11.4048 13.6968973 11.5628 13.6578973 11.6798 13.5798973 11.7958 13.5028973 11.8878 13.4058973 11.9548 13.2888973 12.0208 13.1718973 12.0618 13.0418973 12.0788 12.8978973 12.0958 12.7538973 12.1038 12.6198973 12.1038 12.4978973L12.1038 9.83389727C12.1038 9.47989727 12.1678 9.18689727 12.2958 8.95989727 12.4228 8.73289727 12.5728 8.54989727 12.7458 8.41089727 12.9168 8.27189727 13.0978 8.17189727 13.2868 8.11089727 13.4748 8.04989727 13.6298 8.01389727 13.7518 8.00289727L13.7518 7.95289727C13.6298 7.94189727 13.4748 7.90789727 13.2868 7.85289727 13.0978 7.79789727 12.9168 7.69989727 12.7458 7.56189727 12.5728 7.42289727 12.4228 7.22889727 12.2958 6.97889727 12.1678 6.72889727 12.1038 6.39889727 12.1038 5.98889727L12.1038 3.45689727C12.1038 3.32389727 12.0958 3.18589727 12.0788 3.04089727 12.0618 2.89689727 12.0208 2.76689727 11.9548 2.64989727 11.8878 2.53289727 11.7958 2.43589727 11.6798 2.35889727 11.5628 2.28089727 11.4048 2.24189727 11.2048 2.24189727L10.3058 2.24189727 10.3058.376897266 12.4198.376897266C12.6088.376897266 12.8228.423897266 13.0608.518897266 13.2998.612897266 13.5218.751897266 13.7278.934897266 13.9328 1.11789727 14.1068 1.35089727 14.2518 1.63389727 14.3958 1.91689727 14.4688 2.24789727 14.4688 2.62489727L14.4688 5.75489727C14.4688 6.03189727 14.5238 6.26789727 14.6348 6.46189727 14.7458 6.65689727 14.8788 6.81289727 15.0348 6.92789727 15.1898 7.04589727 15.3558 7.12889727 15.5338 7.17889727 15.7108 7.22889727 15.8668 7.25289727 15.9998 7.25289727L15.9998 8.70189727C15.8668 8.70189727 15.7108 8.72689727 15.5338 8.77789727 15.3558 8.82589727 15.1898 8.90489727 15.0348 9.00989727 14.8788 9.11489727 14.7458 9.25789727 14.6348 9.43489727 14.5238 9.61189727 14.4688 9.82889727 14.4688 10.0838973L14.4688 13.3138973C14.4688 13.6918973 14.3958 14.0208973 14.2518 14.3048973 14.1068 14.5878973 13.9328 14.8208973 13.7278 15.0038973 13.5218 15.1868973 13.2998 15.3248973 13.0608 15.4208973 12.8228 15.5138973 12.6088 15.5608973 12.4198 15.5608973L10.3058 15.5608973 10.3058 13.6968973 11.2048 13.6968973z"/>
</svg>

<svg xmlns="http://www.w3.org/2000/svg" viewBox="0 0 16 16">
	<path d="M4.778 2.242c-.2 0-.358.04-.474.117a.85.85 0 0 0-.275.29 1.033 1.033 0 0 0-.125.392 3.564 3.564 0 0 0-.025.416v2.532c0 .41-.064.74-.191.99-.128.25-.278.444-.45.583a1.573 1.573 0 0 1-.541.29 2.5 2.5 0 0 1-.466.1v.05c.122.012.277.048.466.109.188.06.369.16.541.3.172.139.322.322.45.549.127.227.191.52.191.874v2.664c0 .122.008.256.025.4.017.144.059.274.125.39a.85.85 0 0 0 .275.292c.116.079.274.117.474.117h.899v1.864H3.563a1.79 1.79 0 0 1-.641-.14 2.259 2.259 0 0 1-1.19-1.116 2.147 2.147 0 0 1-.217-.991v-3.23a1.2 1.2 0 0 0-.167-.65 1.418 1.418 0 0 0-.399-.424 1.661 1.661 0 0 0-.5-.232A1.672 1.672 0 0 0 0 8.702v-1.45c.122 0 .272-.023.449-.073a1.486 1.486 0 0 0 .899-.717 1.4 1.4 0 0 0 .167-.707v-3.13c0-.377.072-.708.217-.99.144-.284.318-.517.524-.7.205-.183.427-.322.666-.416.238-.095.452-.142.641-.142h2.114v1.865h-.899zm6.427 11.455c.2 0 .358-.04.475-.117a.859.859 0 0 0 .275-.291c.066-.117.107-.247.124-.391a3.43 3.43 0 0 0 .025-.4V9.834c0-.354.064-.647.192-.874.127-.227.277-.41.45-.55.17-.138.352-.238.54-.3.189-.06.344-.096.466-.107v-.05a2.558 2.558 0 0 1-.465-.1 1.555 1.555 0 0 1-.541-.291 1.748 1.748 0 0 1-.45-.583c-.128-.25-.192-.58-.192-.99V3.457c0-.133-.008-.271-.025-.416a1.032 1.032 0 0 0-.124-.391.859.859 0 0 0-.275-.291c-.117-.078-.275-.117-.475-.117h-.9V.377h2.115c.189 0 .403.047.64.142.24.094.462.233.668.416.205.183.379.416.524.699.144.283.217.614.217.99v3.13a1.403 1.403 0 0 0 .566 1.174c.155.118.32.2.499.25.177.05.333.075.466.075v1.449c-.133 0-.29.025-.466.076a1.656 1.656 0 0 0-.5.232 1.397 1.397 0 0 0-.4.425 1.2 1.2 0 0 0-.165.649v3.23c0 .378-.073.707-.217.99a2.373 2.373 0 0 1-.524.7 2.276 2.276 0 0 1-.667.417 1.79 1.79 0 0 1-.641.14h-2.114v-1.864h.899z"/>
</svg>
